round/svg/library_books.svg

<svg xmlns="http://www.w3.org/2000/svg" width="24" height="24"><path d="M3 6c-.55 0-1 .45-1 1v13c0 1.1.9 2 2 2h13c.55 0 1-.45 1-1s-.45-1-1-1H5c-.55 0-1-.45-1-1V7c0-.55-.45-1-1-1zm17-4H8c-1.1 0-2 .9-2 2v12c0 1.1.9 2 2 2h12c1.1 0 2-.9 2-2V4c0-1.1-.9-2-2-2zm-2 9h-8c-.55 0-1-.45-1-1s.45-1 1-1h8c.55 0 1 .45 1 1s-.45 1-1 1zm-4 4h-4c-.55 0-1-.45-1-1s.45-1 1-1h4c.55 0 1 .45 1 1s-.45 1-1 1zm4-8h-8c-.55 0-1-.45-1-1s.45-1 1-1h8c.55 0 1 .45 1 1s-.45 1-1 1z" fill="currentColor"/></svg>

<?xml version="1.0" encoding="utf-8"?>
<!-- Generator: Adobe Illustrator 19.1.0, SVG Export Plug-In . SVG Version: 6.00 Build 0)  -->
<svg version="1.1" xmlns="http://www.w3.org/2000/svg" xmlns:xlink="http://www.w3.org/1999/xlink" x="0px" y="0px" width="24px"
	 height="24px" viewBox="0 0 24 24" enable-background="new 0 0 24 24" xml:space="preserve">
<g id="Bounding_Boxes" display="none">
	<path display="inline" fill="none" d="M0,0h24v24H0V0z"/>
</g>
<g id="Rounded" fill="currentColor">
	<path d="M3,6L3,6C2.45,6,2,6.45,2,7v13c0,1.1,0.9,2,2,2h13c0.55,0,1-0.45,1-1v0c0-0.55-0.45-1-1-1H5c-0.55,0-1-0.45-1-1V7
		C4,6.45,3.55,6,3,6z M20,2H8C6.9,2,6,2.9,6,4v12c0,1.1,0.9,2,2,2h12c1.1,0,2-0.9,2-2V4C22,2.9,21.1,2,20,2z M18,11h-8
		c-0.55,0-1-0.45-1-1v0c0-0.55,0.45-1,1-1h8c0.55,0,1,0.45,1,1v0C19,10.55,18.55,11,18,11z M14,15h-4c-0.55,0-1-0.45-1-1v0
		c0-0.55,0.45-1,1-1h4c0.55,0,1,0.45,1,1v0C15,14.55,14.55,15,14,15z M18,7h-8C9.45,7,9,6.55,9,6v0c0-0.55,0.45-1,1-1h8
		c0.55,0,1,0.45,1,1v0C19,6.55,18.55,7,18,7z"/>
</g>
</svg>
